build/images/icon-twitter.svg

<svg width="20" height="16" viewBox="0 0 20 16" fill="none" xmlns="http://www.w3.org/2000/svg">
<path d="M20 1.89415C19.2563 2.21538 18.4637 2.42831 17.6375 2.53169C18.4875 2.032 19.1363 1.24677 19.4412 0.300308C18.6488 0.765538 17.7738 1.09415 16.8412 1.27754C16.0887 0.488616 15.0162 0 13.8462 0C11.5763 0 9.74875 1.81415 9.74875 4.03815C9.74875 4.35815 9.77625 4.66585 9.84375 4.95877C6.435 4.79508 3.41875 3.18646 1.3925 0.736C1.03875 1.34031 0.83125 2.032 0.83125 2.77662C0.83125 4.17477 1.5625 5.41415 2.6525 6.13169C1.99375 6.11938 1.3475 5.93108 0.8 5.63446C0.8 5.64677 0.8 5.66277 0.8 5.67877C0.8 7.64062 2.22125 9.27015 4.085 9.64554C3.75125 9.73538 3.3875 9.77846 3.01 9.77846C2.7475 9.77846 2.4825 9.76369 2.23375 9.70954C2.765 11.3083 4.2725 12.4837 6.065 12.5218C4.67 13.5963 2.89875 14.2437 0.98125 14.2437C0.645 14.2437 0.3225 14.2289 0 14.1883C1.81625 15.3415 3.96875 16 6.29 16C13.835 16 17.96 9.84615 17.96 4.512C17.96 4.33354 17.9538 4.16123 17.945 3.99015C18.7588 3.42154 19.4425 2.71138 20 1.89415Z" fill="white"/>
</svg>

<svg width="20" height="16" fill="none" xmlns="http://www.w3.org/2000/svg"><path d="M20 1.894a8.653 8.653 0 01-2.363.638A4.026 4.026 0 0019.441.3a8.27 8.27 0 01-2.6.978A4.139 4.139 0 0013.846 0C11.576 0 9.75 1.814 9.75 4.038c0 .32.027.628.095.92A11.666 11.666 0 011.393.737a4.017 4.017 0 00-.562 2.04 4.03 4.03 0 001.821 3.356A4.098 4.098 0 01.8 5.634v.045C.8 7.64 2.221 9.27 4.085 9.646c-.334.09-.697.132-1.075.132a3.68 3.68 0 01-.776-.068 4.131 4.131 0 003.831 2.812 8.32 8.32 0 01-5.084 1.722A7.73 7.73 0 010 14.188 11.675 11.675 0 006.29 16c7.545 0 11.67-6.154 11.67-11.488 0-.178-.006-.35-.015-.522A8.11 8.11 0 0020 1.894z" fill="#fff"/></svg>
